assets/sonr-icons/expand.svg

<svg xmlns="http://www.w3.org/2000/svg" width="24" height="24" fill="none" viewBox="0 0 24 24"><path fill="#000" d="M14.88 2.40002C14.3498 2.40002 13.92 2.82983 13.92 3.36002 13.92 3.89022 14.3498 4.32002 14.88 4.32002H18.3224L13.2412 9.4012C12.8663 9.77611 12.8663 10.3839 13.2412 10.7588 13.6161 11.1338 14.2239 11.1338 14.5988 10.7588L19.68 5.67767V9.12002C19.68 9.65022 20.1098 10.08 20.64 10.08 21.1702 10.08 21.6 9.65022 21.6 9.12002V3.36002C21.6 2.82983 21.1702 2.40002 20.64 2.40002H14.88ZM10.7588 13.2412C10.3839 12.8663 9.77611 12.8663 9.4012 13.2412L4.32002 18.3224V14.88C4.32002 14.3498 3.89022 13.92 3.36002 13.92 2.82983 13.92 2.40002 14.3498 2.40002 14.88V20.64C2.40002 21.1702 2.82983 21.6 3.36002 21.6H9.12002C9.65022 21.6 10.08 21.1702 10.08 20.64 10.08 20.1098 9.65022 19.68 9.12002 19.68H5.67767L10.7588 14.5988C11.1338 14.2239 11.1338 13.6161 10.7588 13.2412Z"/></svg>

<svg xmlns="http://www.w3.org/2000/svg" width="24" height="24" fill="none"><path fill="currentColor" d="M14.88 2.4a.96.96 0 1 0 0 1.92h3.442l-5.08 5.081a.96.96 0 1 0 1.357 1.358l5.081-5.081V9.12a.96.96 0 1 0 1.92 0V3.36a.96.96 0 0 0-.96-.96zm-4.121 10.841a.96.96 0 0 0-1.358 0L4.32 18.322V14.88a.96.96 0 1 0-1.92 0v5.76c0 .53.43.96.96.96h5.76a.96.96 0 1 0 0-1.92H5.678l5.08-5.081a.96.96 0 0 0 0-1.358"/></svg>
